wealthman/src/img/chat-icon.svg

<svg xmlns="http://www.w3.org/2000/svg" width="18" height="16">
    <path fill="#FFF" fill-rule="evenodd" d="M16.463 10.455a.917.917 0 0 1-.142.195l-4.228 5.049a.89.89 0 0 1-.303.197.85.85 0 0 1-.383.094H9.531a.852.852 0 0 1-.616-.263.865.865 0 0 1-.261-.619v-2.596H6.046c-3.34 0-6.049-2.724-6.049-6.085v-.348c0-3.362 2.709-6.086 6.049-6.086h5.9c3.341 0 6.049 2.724 6.049 6.086v.348a6.057 6.057 0 0 1-1.532 4.028zm-.537-4.406c0-2.194-1.768-3.973-3.95-3.973H6.022c-2.182 0-3.95 1.779-3.95 3.973v.419c0 2.196 1.768 3.974 3.95 3.974h3.657v.002h.183c.476 0 .861.388.861.867v2.598h.155l3.97-4.741c.021-.021.045-.037.068-.056a3.958 3.958 0 0 0 1.01-2.644v-.419z"/>
</svg>

<svg 
 xmlns="http://www.w3.org/2000/svg"
 xmlns:xlink="http://www.w3.org/1999/xlink"
 width="18px" height="16px">
<path fill-rule="evenodd"  fill="rgb(255, 255, 255)"
 d="M16.463,10.456 C16.424,10.525 16.380,10.592 16.321,10.651 L12.093,15.700 C12.004,15.789 11.900,15.854 11.790,15.896 C11.674,15.955 11.545,15.991 11.407,15.991 L9.531,15.991 C9.290,15.991 9.072,15.890 8.915,15.728 C8.755,15.571 8.654,15.351 8.654,15.108 L8.654,12.513 L6.047,12.513 C2.706,12.513 -0.002,9.788 -0.002,6.427 L-0.002,6.080 C-0.002,2.718 2.706,-0.006 6.047,-0.006 L11.946,-0.006 C15.287,-0.006 17.995,2.718 17.995,6.080 L17.995,6.427 C17.995,7.977 17.412,9.383 16.463,10.456 ZM15.926,6.050 C15.926,3.855 14.158,2.076 11.977,2.076 L6.022,2.076 C3.840,2.076 2.072,3.855 2.072,6.050 L2.072,6.469 C2.072,8.664 3.840,10.443 6.022,10.443 L9.679,10.443 L9.680,10.445 L9.862,10.445 C10.338,10.445 10.723,10.833 10.723,11.312 L10.723,13.909 L10.878,13.909 L14.848,9.169 C14.869,9.148 14.893,9.132 14.916,9.113 C15.542,8.410 15.927,7.487 15.927,6.469 L15.927,6.050 L15.926,6.050 Z"/>
</svg>
